Numix/24/emotes/face-plain.svg

<?xml version="1.0" encoding="UTF-8" standalone="no"?>
<svg
   xmlns:dc="http://purl.org/dc/elements/1.1/"
   xmlns:cc="http://creativecommons.org/ns#"
   xmlns:rdf="http://www.w3.org/1999/02/22-rdf-syntax-ns#"
   xmlns:svg="http://www.w3.org/2000/svg"
   xmlns="http://www.w3.org/2000/svg"
   xmlns:sodipodi="http://sodipodi.sourceforge.net/DTD/sodipodi-0.dtd"
   xmlns:inkscape="http://www.inkscape.org/namespaces/inkscape"
   width="24px"
   height="24px"
   viewBox="0 0 18 18"
   version="1.1"
   id="svg1044"
   inkscape:version="0.91 r"
   sodipodi:docname="face-plain.svg">
  <metadata
     id="metadata1059">
    <rdf:RDF>
      <cc:Work
         rdf:about="">
        <dc:format>image/svg+xml</dc:format>
        <dc:type
           rdf:resource="http://purl.org/dc/dcmitype/StillImage" />
      </cc:Work>
    </rdf:RDF>
  </metadata>
  <defs
     id="defs1057" />
  <sodipodi:namedview
     pagecolor="#ffffff"
     bordercolor="#666666"
     borderopacity="1"
     objecttolerance="10"
     gridtolerance="10"
     guidetolerance="10"
     inkscape:pageopacity="0"
     inkscape:pageshadow="2"
     inkscape:window-width="640"
     inkscape:window-height="480"
     id="namedview1055" />
  <g
     id="surface1">
    <path
       style=" stroke:none;fill-rule:nonzero;fill:rgb(100%,85.490196%,36.862745%);fill-opacity:1;"
       d="M 15.75 9 C 15.75 12.210938 12.726562 14.8125 9 14.8125 C 5.273438 14.8125 2.25 12.210938 2.25 9 C 2.25 5.789062 5.273438 3.1875 9 3.1875 C 12.726562 3.1875 15.75 5.789062 15.75 9 Z M 15.75 9 "
       id="path1047" />
    <path
       style=" stroke:none;fill-rule:nonzero;fill:rgb(39.607843%,39.607843%,39.607843%);fill-opacity:1;"
       d="M 7.6875 11.625 L 10.3125 11.625 C 10.417969 11.625 10.5 11.707031 10.5 11.8125 L 10.5 12.1875 C 10.5 12.292969 10.417969 12.375 10.3125 12.375 L 7.6875 12.375 C 7.582031 12.375 7.5 12.292969 7.5 12.1875 L 7.5 11.8125 C 7.5 11.707031 7.582031 11.625 7.6875 11.625 Z M 7.6875 11.625 "
       id="path1049" />
    <path
       style=" stroke:none;fill-rule:nonzero;fill:rgb(39.607843%,39.607843%,39.607843%);fill-opacity:1;"
       d="M 5.4375 7.875 L 7.6875 7.875 C 7.792969 7.875 7.875 7.957031 7.875 8.0625 C 7.875 8.167969 7.792969 8.25 7.6875 8.25 L 5.4375 8.25 C 5.332031 8.25 5.25 8.167969 5.25 8.0625 C 5.25 7.957031 5.332031 7.875 5.4375 7.875 Z M 5.4375 7.875 "
       id="path1051" />
    <path
       style=" stroke:none;fill-rule:nonzero;fill:rgb(39.607843%,39.607843%,39.607843%);fill-opacity:1;"
       d="M 10.3125 7.875 L 12.5625 7.875 C 12.667969 7.875 12.75 7.957031 12.75 8.0625 C 12.75 8.167969 12.667969 8.25 12.5625 8.25 L 10.3125 8.25 C 10.207031 8.25 10.125 8.167969 10.125 8.0625 C 10.125 7.957031 10.207031 7.875 10.3125 7.875 Z M 10.3125 7.875 "
       id="path1053" />
  </g>
</svg>

<svg xmlns="http://www.w3.org/2000/svg" width="24" height="24" viewBox="0 0 18 18">
 <g>
  <path d="m 15.75 9 c 0 3.211 -3.02 5.813 -6.75 5.813 c -3.727 0 -6.75 -2.602 -6.75 -5.813 c 0 -3.211 3.02 -5.813 6.75 -5.813 c 3.727 0 6.75 2.602 6.75 5.813 m 0 0" style="fill:#ffd95d;fill-opacity:1;stroke:none;fill-rule:nonzero"/>
  <path d="m 7.688 11.625 l 2.625 0 c 0.105 0 0.188 0.082 0.188 0.188 l 0 0.375 c 0 0.105 -0.082 0.188 -0.188 0.188 l -2.625 0 c -0.105 0 -0.188 -0.082 -0.188 -0.188 l 0 -0.375 c 0 -0.105 0.082 -0.188 0.188 -0.188 m 0 0" style="fill:#646464;fill-opacity:1;stroke:none;fill-rule:nonzero"/>
  <path d="m 5.438 7.875 l 2.25 0 c 0.105 0 0.188 0.082 0.188 0.188 c 0 0.105 -0.082 0.188 -0.188 0.188 l -2.25 0 c -0.105 0 -0.188 -0.082 -0.188 -0.188 c 0 -0.105 0.082 -0.188 0.188 -0.188 m 0 0" style="fill:#646464;fill-opacity:1;stroke:none;fill-rule:nonzero"/>
  <path d="m 10.313 7.875 l 2.25 0 c 0.105 0 0.188 0.082 0.188 0.188 c 0 0.105 -0.082 0.188 -0.188 0.188 l -2.25 0 c -0.105 0 -0.188 -0.082 -0.188 -0.188 c 0 -0.105 0.082 -0.188 0.188 -0.188 m 0 0" style="fill:#646464;fill-opacity:1;stroke:none;fill-rule:nonzero"/>
 </g>
</svg>
